icon/lg/nanonets.svg

<?xml version="1.0" encoding="UTF-8"?>
<svg viewBox="0 0 256 206" version="1.1" xmlns="http://www.w3.org/2000/svg" xmlns:xlink="http://www.w3.org/1999/xlink" preserveAspectRatio="xMidYMid" height="1em" width="1em">
  <g>
    <path d="M77.1257,77.1259 C91.2227,77.1259 102.6497,88.5529 102.6497,102.6489 C102.6497,109.6919 99.7967,116.0669 95.1857,120.6849 L95.1857,120.6849 L120.1477,155.5579 C122.6737,154.7209 125.3667,154.2519 128.1737,154.2519 C131.0057,154.2519 133.7217,154.7319 136.2677,155.5839 L136.2677,155.5839 L151.2977,133.4709 C153.2367,130.6219 157.1197,129.8819 159.9687,131.8189 C162.8207,133.7569 163.5617,137.6399 161.6227,140.4899 L161.6227,140.4899 L146.7737,162.3359 C151.0557,166.8999 153.6977,173.0229 153.6977,179.7749 C153.6977,193.8719 142.2697,205.2989 128.1737,205.2989 C114.0767,205.2989 102.6497,193.8719 102.6497,179.7749 C102.6497,173.0009 105.3077,166.8599 109.6147,162.2899 L109.6147,162.2899 L84.4237,127.0999 C82.1107,127.7909 79.6637,128.1729 77.1257,128.1729 C74.1447,128.1729 71.2947,127.6349 68.6357,126.6959 L68.6357,126.6959 L45.1887,163.5059 C48.8467,167.9229 51.0477,173.5909 51.0477,179.7749 C51.0477,193.8719 39.6197,205.2989 25.5237,205.2989 C11.4277,205.2989 -0.0003,193.8719 -0.0003,179.7749 C-0.0003,165.6789 11.4277,154.2519 25.5237,154.2519 C28.9087,154.2519 32.1327,154.9249 35.0887,156.1219 L35.0887,156.1219 L58.2407,119.7759 C54.1287,115.2459 51.6027,109.2499 51.6027,102.6489 C51.6027,88.5529 63.0297,77.1259 77.1257,77.1259 Z M230.4766,-0.0004 C244.5726,-0.0004 255.9996,11.4266 255.9996,25.5236 C255.9996,39.6196 244.5726,51.0466 230.4766,51.0466 C227.3716,51.0466 224.4096,50.4646 221.6576,49.4496 L221.6576,49.4496 L198.2996,86.1176 C202.0956,90.5726 204.3976,96.3386 204.3976,102.6486 C204.3976,116.7456 192.9706,128.1736 178.8736,128.1736 C164.7776,128.1736 153.3506,116.7456 153.3506,102.6486 C153.3506,95.9166 155.9766,89.8106 160.2376,85.2496 L160.2376,85.2496 L135.0076,50.0046 C132.7276,50.6726 130.3226,51.0466 127.8266,51.0466 C125.2916,51.0466 122.8476,50.6646 120.5366,49.9766 L120.5366,49.9766 L104.7036,73.2706 C102.7636,76.1216 98.8826,76.8596 96.0316,74.9236 C93.1796,72.9856 92.4396,69.1036 94.3776,66.2516 L94.3776,66.2516 L109.7886,43.5806 C105.1636,38.9606 102.3026,32.5766 102.3026,25.5236 C102.3026,11.4266 113.7306,-0.0004 127.8266,-0.0004 C141.9226,-0.0004 153.3506,11.4266 153.3506,25.5236 C153.3506,32.6066 150.4616,39.0126 145.8016,43.6376 L145.8016,43.6376 L170.7386,78.4736 C173.2956,77.6116 176.0266,77.1256 178.8736,77.1256 C182.1356,77.1256 185.2436,77.7606 188.1106,78.8756 L188.1106,78.8756 L211.3536,42.3886 C207.3816,37.8896 204.9526,31.9966 204.9526,25.5236 C204.9526,11.4266 216.3796,-0.0004 230.4766,-0.0004 Z" fill="#546FFF"/>
  </g>
</svg>

<svg width="256" height="206" xmlns="http://www.w3.org/2000/svg" preserveAspectRatio="xMidYMid"><path d="M77.126 77.126c14.097 0 25.524 11.427 25.524 25.523a25.446 25.446 0 0 1-7.464 18.036l24.962 34.873a25.456 25.456 0 0 1 8.026-1.306c2.832 0 5.548.48 8.094 1.332l15.03-22.113a6.245 6.245 0 0 1 8.67-1.652 6.24 6.24 0 0 1 1.655 8.67l-14.85 21.847c4.283 4.564 6.925 10.687 6.925 17.439 0 14.097-11.428 25.524-25.524 25.524-14.097 0-25.524-11.427-25.524-25.524 0-6.774 2.658-12.915 6.965-17.485L84.424 127.1a25.449 25.449 0 0 1-7.298 1.073 25.43 25.43 0 0 1-8.49-1.477l-23.447 36.81a25.418 25.418 0 0 1 5.859 16.269c0 14.097-11.428 25.524-25.524 25.524S0 193.872 0 179.775c0-14.096 11.428-25.523 25.524-25.523 3.385 0 6.609.673 9.565 1.87l23.152-36.346c-4.112-4.53-6.638-10.526-6.638-17.127 0-14.096 11.427-25.523 25.523-25.523ZM230.476 0C244.574 0 256 11.427 256 25.524c0 14.096-11.427 25.523-25.523 25.523-3.105 0-6.067-.582-8.82-1.597L198.3 86.118c3.796 4.455 6.098 10.22 6.098 16.53 0 14.098-11.427 25.526-25.524 25.526-14.096 0-25.523-11.428-25.523-25.525 0-6.732 2.626-12.838 6.887-17.4l-25.23-35.244a25.485 25.485 0 0 1-7.181 1.042c-2.535 0-4.98-.382-7.29-1.07L104.704 73.27a6.242 6.242 0 1 1-10.326-7.019l15.41-22.671a25.442 25.442 0 0 1-7.485-18.057C102.303 11.427 113.73 0 127.827 0s25.524 11.427 25.524 25.524c0 7.083-2.89 13.489-7.55 18.114l24.938 34.836a25.409 25.409 0 0 1 8.135-1.348c3.262 0 6.37.635 9.237 1.75l23.243-36.487c-3.972-4.5-6.401-10.392-6.401-16.865C204.953 11.427 216.38 0 230.477 0Z" fill="#546FFF"/></svg>
